X:1
T:This Is the Victory
T:This Is the Victory
T:Philip Paul Bliss
T:Philip Paul Bliss, 1871
T:Public Domain Courtesy of the Cyber Hymnal™
T:Public Domain Courtesy of the Cyber Hymnal™
C:Philip Paul Bliss
Z:Public Domain
Z:Courtesy of the Cyber Hymnal™
%%score ( 1 2 ) ( 3 4 )
L:1/8
Q:1/4=105
M:4/4
K:A
V:1 treble 
V:2 treble 
V:3 bass 
V:4 bass 
V:1
 [CE]2 [DF]>[B,G] [CA][DB] [Ec]2 | [EB]2 [EB]>[EA] [EG][EF] E2 | %2
w: 1.~March to the bat- tle- field,|march on with sword and shield;|
w: 2.~Stand firm a- gainst thy foes;|stand, though a host op- pose;|
w: 3.~Fight, though thy foes in- crease;|fight, till the dawn of peace;|
 [CE]2 [DF]>[B,G] [CA][DB][Ec][Ec] | [^DB]2 [DF]2 [EB]4 | [CE]2 [DF]>[B,G] [CA][DB] [Ec]2 | %5
w: March on; the foe shall yield to|Christ our king.|On- ward, ye faith- ful band,|
w: Stand! well our lea- der knows our|con- flicts all.|“Fear not,” He says to thee,|
w: Fight, till the war shall cease, then|shout and sing.|Shout, then tri- umph- ant- ly,|
 [EB]2 [EB]>[EA] [EG][EF] E2 | [CE]2 [DF]>[B,G] [CA][DB][Ec][Ec] | [EB]2 [F^d]2 [Ge]4 || %8
w: on- ward at His com- mand;|On- ward, nor halt- ing stand, but|loud- ly sing.|
w: “Fear not, but val- iant be,|Fear not, but trust in Me; the|foe must fall.”|
w: shout, shout the vic- to- ry;|Shout, “Glo- ry be to Thee, O|Lord, our king!”|
"^Refrain" E2 [EA]>[EB] [EA][EG] [EA]2 | F2 [FB]>[Fc] [FB][F^A] [FB]2 | %10
w: ||
w: This is the vic- to- ry,|this is the vic- to- ry,|
w: ||
 G2 [Ge]>[Gf] [Ge][Gd][Gc][FA] | A2 [Ac]>[Ac] [GB]4 | E2 [EA]>[EB] [EA][EG] [EA]2 | %13
w: |||
w: This is the vic- to- ry, we|sing by the way;|This is the vic- to- ry,|
w: |||
 F2 [FB]>[Fc] [FB][F^A] [FB]2 | G2 [Ge]>[Gf] [Ge][Gd][Gc][GB] | A2 [Ec]>[EB] [EA]4 |] %16
w: |||
w: this is the vic- to- ry|This is the vic- to- ry, and|faith gains the day.|
w: |||
V:2
 x8 | x6 E2 | x8 | x8 | x8 | x6 E2 | x8 | x8 || E2 x6 | F2 x6 | G2 x6 | A2 x6 | E2 x6 | F2 x6 | %14
 G2 x6 | A2 x6 |] %16
V:3
 [A,,A,]2 [A,,A,]>[A,,A,] [A,,A,][A,,A,] [A,,E]2 | [E,D]2 [E,D]>[E,C] [E,B,][E,A,] [E,G,]2 | %2
 [A,,A,]2 [A,,A,]>[A,,A,] [A,,A,][A,,A,][A,,A,][A,,A,] | [B,,F,]2 [B,,A,]2 [E,G,]4 | %4
 [A,,A,]2 [A,,A,]>[A,,A,] [A,,A,][A,,A,] [A,,E]2 | [E,D]2 [E,D]>[E,C] [E,B,][E,A,] [E,G,]2 | %6
 [A,,A,]2 [A,,A,]>[A,,A,] [A,,A,][A,,A,][A,,A,][A,,A,] | [B,,G,]2 [B,,B,]2 [E,B,]4 || %8
 [A,,C]2 [A,,C]>[A,,C] [A,,C][A,,C] [A,,C]2 | [D,D]2 [D,D]>[D,D] [D,D][D,D] [D,D]2 | %10
 [E,B,]2 [E,B,]>[E,B,] [E,B,][E,B,][E,E][E,D] | [A,C]2 [A,,E]>[C,E] (E2 D2) | %12
 [A,,C]2 [A,,C]>[A,,C] [A,,C][A,,C] [A,,C]2 | [D,D]2 [D,D]>[D,D] [D,D][D,D] [D,D]2 | %14
 [E,B,]2 [E,B,]>[E,B,] [E,B,][E,B,][E,E][E,D] | [A,C]2 [E,E]>[E,D] [A,,C]4 |] %16
V:4
 x8 | x8 | x8 | x8 | x8 | x8 | x8 | x8 || x8 | x8 | x8 | x4 E,4 | x8 | x8 | x8 | x8 |] %16

